svg/color/ant.svg

<?xml version="1.0" encoding="UTF-8" ?>
<!DOCTYPE svg PUBLIC "-//W3C//DTD SVG 1.1//EN" "http://www.w3.org/Graphics/SVG/1.1/DTD/svg11.dtd">
<svg width="250pt" height="250pt" viewBox="0 0 250 250" version="1.1" xmlns="http://www.w3.org/2000/svg">
<g id="#f8feffff">
<path fill="#f8feff" opacity="1.00" d=" M 0.00 0.00 L 250.00 0.00 L 250.00 250.00 L 0.00 250.00 L 0.00 0.00 M 90.80 36.09 C 93.78 40.33 99.30 42.98 101.08 47.83 C 66.30 49.12 33.77 72.58 20.56 104.63 C 12.07 124.16 12.01 146.75 18.08 166.97 C 31.78 211.75 77.88 242.23 124.00 242.06 C 167.33 243.28 209.67 217.89 230.12 180.00 C 214.83 181.63 197.89 181.23 184.69 172.31 C 174.95 166.34 167.97 152.64 174.96 142.00 C 178.31 131.26 193.80 125.61 202.25 133.72 C 205.76 137.36 204.64 141.88 202.98 146.07 C 221.67 142.47 230.70 120.08 226.04 102.96 C 222.60 88.34 209.84 78.49 197.30 71.62 C 199.34 62.56 190.03 60.86 184.00 57.00 C 155.46 42.15 123.12 33.68 90.80 36.09 Z" />
<path fill="#f8feff" opacity="1.00" d=" M 149.78 62.07 C 161.98 61.01 174.46 64.11 185.28 69.72 C 179.41 67.03 175.66 71.88 170.94 73.98 C 163.28 71.53 154.87 68.76 149.78 62.07 Z" />
</g>
<g id="#02d5f7ff">
<path fill="#02d5f7" opacity="1.00" d=" M 90.80 36.09 C 123.12 33.68 155.46 42.15 184.00 57.00 C 190.03 60.86 199.34 62.56 197.30 71.62 C 209.84 78.49 222.60 88.34 226.04 102.96 C 230.70 120.08 221.67 142.47 202.98 146.07 C 204.64 141.88 205.76 137.36 202.25 133.72 C 193.80 125.61 178.31 131.26 174.96 142.00 C 167.97 152.64 174.95 166.34 184.69 172.31 C 197.89 181.23 214.83 181.63 230.12 180.00 C 209.67 217.89 167.33 243.28 124.00 242.06 C 77.88 242.23 31.78 211.75 18.08 166.97 C 12.01 146.75 12.07 124.16 20.56 104.63 C 33.77 72.58 66.30 49.12 101.08 47.83 C 99.30 42.98 93.78 40.33 90.80 36.09 M 149.78 62.07 C 154.87 68.76 163.28 71.53 170.94 73.98 C 175.66 71.88 179.41 67.03 185.28 69.72 C 174.46 64.11 161.98 61.01 149.78 62.07 Z" />
</g>
</svg>

<?xml version="1.0" encoding="utf-8"?>
<!-- Generator: Adobe Illustrator 26.0.3, SVG Export Plug-In . SVG Version: 6.00 Build 0)  -->
<svg version="1.1" id="Layer_1" xmlns="http://www.w3.org/2000/svg" xmlns:xlink="http://www.w3.org/1999/xlink" x="0px" y="0px"
	 viewBox="0 0 250 250" style="enable-background:new 0 0 250 250;" xml:space="preserve">
<style type="text/css">
	.st0{fill:#FFFFFF;}
	.st1{fill:#F8FEFF;}
	.st2{fill:#02D5F7;}
</style>
<circle class="st0" cx="124" cy="124.5" r="125"/>
<g id="_x23_f8feffff">
	<path class="st1" d="M149.8,62.1c12.2-1.1,24.7,2,35.5,7.7c-5.9-2.7-9.6,2.2-14.3,4.3C163.3,71.5,154.9,68.8,149.8,62.1z"/>
</g>
<g id="_x23_02d5f7ff">
	<path class="st2" d="M90.8,36.1c32.3-2.4,64.7,6.1,93.2,20.9c6,3.9,15.3,5.6,13.3,14.6c12.5,6.9,25.3,16.7,28.7,31.3
		c4.7,17.1-4.4,39.5-23.1,43.1c1.7-4.2,2.8-8.7-0.7-12.4c-8.4-8.1-23.9-2.5-27.3,8.3c-7,10.6,0,24.3,9.7,30.3
		c13.2,8.9,30.1,9.3,45.4,7.7c-20.4,37.9-62.8,63.3-106.1,62.1c-46.1,0.2-92.2-30.3-105.9-75.1c-6.1-20.2-6-42.8,2.5-62.3
		c13.2-32,45.7-55.5,80.5-56.8C99.3,43,93.8,40.3,90.8,36.1 M149.8,62.1c5.1,6.7,13.5,9.5,21.2,11.9c4.7-2.1,8.5-7,14.3-4.3
		C174.5,64.1,162,61,149.8,62.1z"/>
</g>
</svg>
